svgs/my_arval_mobile.svg

<svg xmlns="http://www.w3.org/2000/svg" viewBox="0 0 192 192"><path d="M91.272 175.816c-6.936-.435-14.798-2.018-21.275-4.285-17.907-6.269-32.871-18.443-42.64-34.692-13.521-22.49-15.002-50.091-3.975-74.065 9.327-20.277 26.802-35.822 48.13-42.814 5.704-1.869 11.085-2.98 17.637-3.639 2.628-.265 10.384-.262 13.227.005 8.574.803 16.873 2.816 23.984 5.816 9.944 4.196 18.577 9.97 25.99 17.383 14.362 14.361 22.478 32.663 23.521 53.039.53 10.356-1.435 22.354-5.231 31.933-4.269 10.775-10.208 19.909-18.047 27.755-14.192 14.205-32.274 22.352-52.339 23.583-3.06.187-5.782.182-8.982-.019Zm12.244-6.6c8.868-.931 17.191-3.351 25.055-7.285 3.265-1.634 4.513-2.362 7.936-4.634 4.724-3.135 8.586-6.336 12.345-10.233 16.996-17.622 24.1-41.858 19.253-65.68-3.61-17.739-13.749-33.595-28.476-44.53-9.862-7.323-22.105-12.295-33.986-13.801-10.045-1.274-20.343-.517-29.804 2.191-17.987 5.15-33.629 17.274-43.277 33.547a72.592 72.592 0 0 0-9.807 30.015c-.484 4.975-.345 11.893.347 17.163 2.726 20.786 14.721 39.752 32.569 51.497 10.946 7.204 23.849 11.423 36.907 12.068 2.292.113 8.566-.069 10.938-.318Zm-12.653-9.548c-12.191-1.008-23.414-5.189-32.777-12.21-5.995-4.496-11.602-10.412-15.521-16.376-3.37-5.128-5.322-9.153-7.232-14.91-5.239-15.789-3.974-33.946 3.388-48.635 6.177-12.326 16.777-22.877 28.953-28.819 7.234-3.53 15.515-5.788 23.966-6.534 2.104-.185 8.098.025 11.88.417 5.345.553 12.113 2.315 17.302 4.504 11.403 4.809 21.538 13.236 28.553 23.741 9.279 13.896 12.564 31.191 9.163 48.246-2.423 12.152-8.406 23.141-17.547 32.229-10.353 10.293-22.884 16.35-37.471 18.111-2.613.316-10.027.454-12.657.236Zm11.812-6.448c1.198-.139 2.447-.343 2.777-.452.533-.177.593-.252.545-.685-.14-1.258-.191-26.426-.058-28.728.168-2.937.352-3.646 1.659-6.395 1.046-2.202 2.019-3.678 3.368-5.107 2.106-2.231 5.397-4.342 8.27-5.304 1.132-.38 1.651-.439 4.981-.575 2.044-.083 9.289-.203 16.1-.265l12.384-.114.153-.404c.085-.222.228-1.074.32-1.894.224-2.017.38-11.717.207-12.836l-.139-.898-1.141-.108c-.628-.059-2.162-.19-3.41-.292-7.632-.619-13.807-2.517-27.398-8.422-12.452-5.41-16.192-6.523-23.848-7.094-1.913-.142-2.648-.12-5.07.153-5.96.674-8.898 1.628-20.128 6.535-15.218 6.649-21.147 8.393-30.62 9.005-1.572.101-2.895.217-2.94.258-.045.04-.107 2.032-.137 4.427-.06 4.671.177 9.65.515 10.817l.208.719 10.444.113c12.237.134 21.755.394 22.732.623 1.11.26 3.528 1.363 5.062 2.308 1.903 1.172 4.557 3.822 5.722 5.712.988 1.604 1.949 3.857 2.496 5.857.379 1.383.38 1.4.441 13.971.034 7.178-.009 13.84-.102 15.505-.114 2.051-.111 2.952.011 3.027.161.1 3.094.561 4.376.688 1.875.185 10.233.086 12.22-.145Zm-9.394-41.606c-6.752-1.287-11.876-6.509-12.956-13.204-.277-1.718-.122-4.725.33-6.398.406-1.504 1.36-3.623 2.141-4.758.795-1.155 2.816-3.213 4.065-4.138 1.415-1.049 3.339-2.006 4.982-2.478 1.119-.321 1.681-.375 3.92-.375 2.213 0 2.823.057 3.989.373 5.921 1.607 10.042 5.712 11.64 11.592.469 1.727.505 5.262.072 7.13-1.376 5.937-5.86 10.596-11.554 12.005-1.777.439-5.003.562-6.629.251Zm5.175-6.377c1.543-.411 2.943-1.23 4.185-2.451 5.309-5.216 2.839-14.151-4.422-15.996-1.143-.29-3.143-.321-4.367-.068-3.338.691-6.446 3.797-7.137 7.134-.255 1.229-.222 3.389.069 4.529.835 3.279 3.658 6.055 6.973 6.858 1.182.286 3.612.283 4.699-.006Zm-18.412 40.278c.06-8.58-.051-20.484-.207-22.094-.282-2.923-1.565-5.627-3.671-7.739-2.12-2.126-4.382-3.184-7.481-3.5-3.836-.392-28.038-.373-28.038.021 0 .081.482 1.485 1.071 3.12 3.701 10.265 9.937 18.877 18.89 26.087 3.269 2.633 8.36 5.695 12.21 7.346 1.54.66 6.708 2.575 6.981 2.587.159.006.214-1.284.245-5.828Zm34.58 4.987c8.777-3.051 15.687-7.42 22.277-14.084 6.451-6.523 10.676-13.303 13.644-21.892.453-1.31.823-2.417.823-2.46 0-.044-6.412-.051-14.248-.017-16.006.07-14.93-.012-17.678 1.336-3.307 1.621-5.835 4.602-6.932 8.174-.321 1.044-.364 1.707-.502 7.673-.175 7.568-.208 20.256-.055 21.366.12.879-.162.89 2.671-.096Zm37.395-67.51c-.012-1.395-2.314-8.188-3.932-11.602-5.522-11.651-15.749-21.906-27.288-27.362-5.972-2.823-13.1-4.784-19.289-5.304-2.658-.223-8.751-.224-11.3-.001-6.131.537-14.059 2.804-19.713 5.637-7.527 3.772-14.428 9.414-19.947 16.308-2.483 3.103-5.67 8.313-7.076 11.571-1.357 3.141-3.145 8.478-3.413 10.182l-.109.694.715-.001c1.126 0 4.914-.472 7.329-.913 5.987-1.094 11.559-3.054 21.311-7.498 9.002-4.102 12.799-5.472 18.045-6.51 3.248-.642 5.491-.802 9.863-.703 4.339.098 6.108.313 9.652 1.174 4.151 1.007 7.539 2.258 16.249 5.996 14.752 6.331 17.77 7.253 27.844 8.508.99.123 1.061.111 1.059-.176Z"/></svg>

<svg
    xmlns="http://www.w3.org/2000/svg"
    viewBox="0 0 192 192"
    id="vector">
    <g id="group">
        <path
            id="path_6"
            d="M 91.272 175.816 C 84.336 175.381 76.474 173.798 69.997 171.531 C 52.09 165.262 37.126 153.088 27.357 136.839 C 13.836 114.349 12.355 86.748 23.382 62.774 C 32.709 42.497 50.184 26.952 71.512 19.96 C 77.216 18.091 82.597 16.98 89.149 16.321 C 91.777 16.056 99.533 16.059 102.376 16.326 C 110.95 17.129 119.249 19.142 126.36 22.142 C 136.304 26.338 144.937 32.112 152.35 39.525 C 166.712 53.886 174.828 72.188 175.871 92.564 C 176.401 102.92 174.436 114.918 170.64 124.497 C 166.371 135.272 160.432 144.406 152.593 152.252 C 138.401 166.457 120.319 174.604 100.254 175.835 C 97.194 176.022 94.472 176.017 91.272 175.816 Z M 103.516 169.216 C 112.384 168.285 120.707 165.865 128.571 161.931 C 131.836 160.297 133.084 159.569 136.507 157.297 C 141.231 154.162 145.093 150.961 148.852 147.064 C 165.848 129.442 172.952 105.206 168.105 81.384 C 164.495 63.645 154.356 47.789 139.629 36.854 C 129.767 29.531 117.524 24.559 105.643 23.053 C 95.598 21.779 85.3 22.536 75.839 25.244 C 57.852 30.394 42.21 42.518 32.562 58.791 C 27.132 67.95 23.79 78.178 22.755 88.806 C 22.271 93.781 22.41 100.699 23.102 105.969 C 25.828 126.755 37.823 145.721 55.671 157.466 C 66.617 164.67 79.52 168.889 92.578 169.534 C 94.87 169.647 101.144 169.465 103.516 169.216 Z M 90.863 159.668 C 78.672 158.66 67.449 154.479 58.086 147.458 C 52.091 142.962 46.484 137.046 42.565 131.082 C 39.195 125.954 37.243 121.929 35.333 116.172 C 30.094 100.383 31.359 82.226 38.721 67.537 C 44.898 55.211 55.498 44.66 67.674 38.718 C 74.908 35.188 83.189 32.93 91.64 32.184 C 93.744 31.999 99.738 32.209 103.52 32.601 C 108.865 33.154 115.633 34.916 120.822 37.105 C 132.225 41.914 142.36 50.341 149.375 60.846 C 158.654 74.742 161.939 92.037 158.538 109.092 C 156.115 121.244 150.132 132.233 140.991 141.321 C 130.638 151.614 118.107 157.671 103.52 159.432 C 100.907 159.748 93.493 159.886 90.863 159.668 Z M 102.675 153.22 C 103.873 153.081 105.122 152.877 105.452 152.768 C 105.985 152.591 106.045 152.516 105.997 152.083 C 105.857 150.825 105.806 125.657 105.939 123.355 C 106.107 120.418 106.291 119.709 107.598 116.96 C 108.644 114.758 109.617 113.282 110.966 111.853 C 113.072 109.622 116.363 107.511 119.236 106.549 C 120.368 106.169 120.887 106.11 124.217 105.974 C 126.261 105.891 133.506 105.771 140.317 105.709 L 152.701 105.595 L 152.854 105.191 C 152.939 104.969 153.082 104.117 153.174 103.297 C 153.398 101.28 153.554 91.58 153.381 90.461 L 153.242 89.563 L 152.101 89.455 C 151.473 89.396 149.939 89.265 148.691 89.163 C 141.059 88.544 134.884 86.646 121.293 80.741 C 108.841 75.331 105.101 74.218 97.445 73.647 C 95.532 73.505 94.797 73.527 92.375 73.8 C 86.415 74.474 83.477 75.428 72.247 80.335 C 57.029 86.984 51.1 88.728 41.627 89.34 C 40.055 89.441 38.732 89.557 38.687 89.598 C 38.642 89.638 38.58 91.63 38.55 94.025 C 38.49 98.696 38.727 103.675 39.065 104.842 L 39.273 105.561 L 49.717 105.674 C 61.954 105.808 71.472 106.068 72.449 106.297 C 73.559 106.557 75.977 107.66 77.511 108.605 C 79.414 109.777 82.068 112.427 83.233 114.317 C 84.221 115.921 85.182 118.174 85.729 120.174 C 86.108 121.557 86.109 121.574 86.17 134.145 C 86.204 141.323 86.161 147.985 86.068 149.65 C 85.954 151.701 85.957 152.602 86.079 152.677 C 86.24 152.777 89.173 153.238 90.455 153.365 C 92.33 153.55 100.688 153.451 102.675 153.22 Z M 93.281 111.614 C 86.529 110.327 81.405 105.105 80.325 98.41 C 80.048 96.692 80.203 93.685 80.655 92.012 C 81.061 90.508 82.015 88.389 82.796 87.254 C 83.591 86.099 85.612 84.041 86.861 83.116 C 88.276 82.067 90.2 81.11 91.843 80.638 C 92.962 80.317 93.524 80.263 95.763 80.263 C 97.976 80.263 98.586 80.32 99.752 80.636 C 105.673 82.243 109.794 86.348 111.392 92.228 C 111.861 93.955 111.897 97.49 111.464 99.358 C 110.088 105.295 105.604 109.954 99.91 111.363 C 98.133 111.802 94.907 111.925 93.281 111.614 Z M 98.456 105.237 C 99.999 104.826 101.399 104.007 102.641 102.786 C 107.95 97.57 105.48 88.635 98.219 86.79 C 97.076 86.5 95.076 86.469 93.852 86.722 C 90.514 87.413 87.406 90.519 86.715 93.856 C 86.46 95.085 86.493 97.245 86.784 98.385 C 87.619 101.664 90.442 104.44 93.757 105.243 C 94.939 105.529 97.369 105.526 98.456 105.237 Z M 80.044 145.515 C 80.104 136.935 79.993 125.031 79.837 123.421 C 79.555 120.498 78.272 117.794 76.166 115.682 C 74.046 113.556 71.784 112.498 68.685 112.182 C 64.849 111.79 40.647 111.809 40.647 112.203 C 40.647 112.284 41.129 113.688 41.718 115.323 C 45.419 125.588 51.655 134.2 60.608 141.41 C 63.877 144.043 68.968 147.105 72.818 148.756 C 74.358 149.416 79.526 151.331 79.799 151.343 C 79.958 151.349 80.013 150.059 80.044 145.515 Z M 114.624 150.502 C 123.401 147.451 130.311 143.082 136.901 136.418 C 143.352 129.895 147.577 123.115 150.545 114.526 C 150.998 113.216 151.368 112.109 151.368 112.066 C 151.368 112.022 144.956 112.015 137.12 112.049 C 121.114 112.119 122.19 112.037 119.442 113.385 C 116.135 115.006 113.607 117.987 112.51 121.559 C 112.189 122.603 112.146 123.266 112.008 129.232 C 111.833 136.8 111.8 149.488 111.953 150.598 C 112.073 151.477 111.791 151.488 114.624 150.502 Z M 152.019 82.992 C 152.007 81.597 149.705 74.804 148.087 71.39 C 142.565 59.739 132.338 49.484 120.799 44.028 C 114.827 41.205 107.699 39.244 101.51 38.724 C 98.852 38.501 92.759 38.5 90.21 38.723 C 84.079 39.26 76.151 41.527 70.497 44.36 C 62.97 48.132 56.069 53.774 50.55 60.668 C 48.067 63.771 44.88 68.981 43.474 72.239 C 42.117 75.38 40.329 80.717 40.061 82.421 L 39.952 83.115 L 40.667 83.114 C 41.793 83.114 45.581 82.642 47.996 82.201 C 53.983 81.107 59.555 79.147 69.307 74.703 C 78.309 70.601 82.106 69.231 87.352 68.193 C 90.6 67.551 92.843 67.391 97.215 67.49 C 101.554 67.588 103.323 67.803 106.867 68.664 C 111.018 69.671 114.406 70.922 123.116 74.66 C 137.868 80.991 140.886 81.913 150.96 83.168 C 151.95 83.291 152.021 83.279 152.019 82.992 Z"
            fill="#000000"
            stroke-width="12"/>
    </g>
</svg>
